X:47
T:Aada (CT 003)
R:Aada
C:Tradicional
S:Msica Tradicional Asturiana, (C) Tello & Tito. Asturies, 2001.
S:http://pagina.de/MusTradAst <telloytito@asturies.org>
N:Cancin de Cuna (Aada), dictada por Prudencia X., "La Caona", de cincuenta y cuatro, de Cabaaquinta, ayuntamiento de Ayer.
A:Asturies
O:Cabaaquinta (Ayer)
Z:Cancioneru de Torner 003
M:6/8
L:1/8
Q:3/8=80
K:C
|: A2 G A2 G|A2 G A2 G-|G3 z2 A|c2 B cBA|G2 G-G3 :|
A2 G A2 G|A2 G A2 G-|G3 z2 A|c2 B cBA|G2 G-G3|
A2 G A2 G|A2 G A2 G-|G3 z2 A|ccc B2 A|G2 G-G2 A|
ccc B2 A|G2 G-G2 A|ccc c2 c|B3-B2 A|
ccc B2 A|G3-G2 z|A2 G A2 G|A2 G A2 G-|G3 z3||
W:Ea, ea, ea, ea.
W:Contigo la Virgen sea.
W:Ola, ola, ola, ola.
W:Contigo la Virgen sola.
W:Ola, ola, ola, ola.
W:Contigo el Rey de la Gloria.
W:Ea, ea, ea, ea.
W:Duerme nin en la cuna
W:que a los pies tienes la luna
W:y a la cabecera el sol.
W:Duerme nin del Seor.
W:Ea, ea, ea, ea.
W:
